X: 135
T:Missa Hercules dux Ferrarie / Agnus Dei
N: Derived from Jos1101e-Missa_Hercules_dux_Ferrarie-Agnus.krn
C: Josquin des Prez
%%abc-version 2.0
%%abcx-abcm2ps-target-version 5.9.1 (29 Sep 2008)
%%abc-creator hum2abc beta
%%abcx-conversion-date 2019/02/12 16:15:44
%%abc-edited-by Jesse Rodin
%%abc-edited-by Jesse Rodin; Victoria Chang 2011/09/11
%%abcx-initial-encoding-date 2011/09/11/
%%humdrum-veritas 1432262785
%%humdrum-veritas-data 1157609602
%%linebreak <none>
%%barnumbers 0
L: 1/4
M: 2/1
Q: 1/2=120
V: 1 clef=treble
V: 2 clef=treble
V: 3 clef=treble-8
V: 4 clef=treble-8
V: 5 clef=bass
V: 6 clef=bass
K: C
[V:1] z8 | 
[V:2] z8 | 
[V:3] d4d2d2- | 
[V:4] d8 | 
[V:5] z8 | 
[V:6] z8 | 
[V:1] z8 | 
[V:2] z8 | 
[V:3] d2cBc4 | 
[V:4] e8 | 
[V:5] z8 | 
[V:6] z8 | 
[V:1] z8 | 
[V:2] z2A2A2A2- | 
[V:3] d2f3ed2- | 
[V:4] f8 | 
[V:5] z8 | 
[V:6] z8 | 
[V:1] z8 | 
[V:2] A2GFG4 | 
[V:3] dcBAB4 | 
[V:4] d8 | 
[V:5] z8 | 
[V:6] z8 | 
[V:1] z8 | 
[V:2] A4c4- | 
[V:3] A8 | 
[V:4] c8 | 
[V:5] z2A,2A,2A,2- | 
[V:6] z8 | 
[V:1] z8 | 
[V:2] c2BAB4 | 
[V:3] z8 | 
[V:4] d8 | 
[V:5] A,2G,F,G,4 | 
[V:6] z8 | 
[V:1] z8 | 
[V:2] E8 | 
[V:3] z2A2A2A2- | 
[V:4] c8 | 
[V:5] A,4A,,4 | 
[V:6] z8 | 
[V:1] z8 | 
[V:2] z2D2D2D2- | 
[V:3] A2GFG4 | 
[V:4] d8 | 
[V:5] B,,4B,,4 | 
[V:6] z8 | 
[V:1] z8 | 
[V:2] D2CB,C4 | 
[V:3] A4z2A2 | 
[V:4] z8 | 
[V:5] A,,4A,4 | 
[V:6] z8 | 
[V:1] z8 | 
[V:2] D4z2D2 | 
[V:3] B2A2B2d2 | 
[V:4] z8 | 
[V:5] G,2F,2G,2_B,2 | 
[V:6] z8 | 
[V:1] z8 | 
[V:2] E2D2E2G2 | 
[V:3] c2d3Bc2 | 
[V:4] z8 | 
[V:5] A,2F,2E,4 | 
[V:6] z8 | 
[V:1] z8 | 
[V:2] F2G3EF2 | 
[V:3] d2B2A4 | 
[V:4] z8 | 
[V:5] D,4z2D,2 | 
[V:6] z8 | 
[V:1] z8 | 
[V:2] G2E2D4 | 
[V:3] G4z2G2 | 
[V:4] z8 | 
[V:5] E,2C,2B,,4 | 
[V:6] z8 | 
[V:1] z8 | 
[V:2] C4z2C2 | 
[V:3] A2c3BcA | 
[V:4] z8 | 
[V:5] A,,8 | 
[V:6] z8 | 
[V:1] z8 | 
[V:2] D2F3EFD | 
[V:3] B2A2d4 | 
[V:4] z8 | 
[V:5] z8 | 
[V:6] z8 | 
[V:1] z8 | 
[V:2] E2F3EFD | 
[V:3] c2d3cdB | 
[V:4] z8 | 
[V:5] z8 | 
[V:6] z8 | 
[V:1] z8 | 
[V:2] E8 | 
[V:3] c8 | 
[V:4] A8 | 
[V:5] z2A,2A,2A,2- | 
[V:6] z8 | 
[V:1] z8 | 
[V:2] z8 | 
[V:3] z8 | 
[V:4] B8 | 
[V:5] A,2G,F,G,4 | 
[V:6] z8 | 
[V:1] z8 | 
[V:2] z8 | 
[V:3] z2e2e2e2- | 
[V:4] c8 | 
[V:5] A,2C3B,A,2- | 
[V:6] z8 | 
[V:1] z8 | 
[V:2] z8 | 
[V:3] e2dcd4 | 
[V:4] A8 | 
[V:5] A,G,F,E,F,4 | 
[V:6] z8 | 
[V:1] z8 | 
[V:2] z2E2E2E2- | 
[V:3] e2c2B4 | 
[V:4] G8 | 
[V:5] E,4E,4 | 
[V:6] z8 | 
[V:1] z8 | 
[V:2] E2DCD4 | 
[V:3] A4z4 | 
[V:4] A8 | 
[V:5] F,4F,4 | 
[V:6] z8 | 
[V:1] z8 | 
[V:2] E2C2B,4 | 
[V:3] z2e2e2e2- | 
[V:4] G8 | 
[V:5] E,4E,4 | 
[V:6] z8 | 
[V:1] z8 | 
[V:2] A,4z4 | 
[V:3] e2dcd4 | 
[V:4] A8 | 
[V:5] F,4F,4 | 
[V:6] z8 | 
[V:1] z8 | 
[V:2] z4E4 | 
[V:3] e2g3fe2- | 
[V:4] z8 | 
[V:5] E,8 | 
[V:6] z8 | 
[V:1] z8 | 
[V:2] F4F4 | 
[V:3] e2dcd4 | 
[V:4] z8 | 
[V:5] z8 | 
[V:6] z8 | 
[V:1] z8 | 
[V:2] E2G3FE2- | 
[V:3] e4z2e2 | 
[V:4] z8 | 
[V:5] z8 | 
[V:6] z8 | 
[V:1] z8 | 
[V:2] E2DCD4 | 
[V:3] f4f4 | 
[V:4] z8 | 
[V:5] z8 | 
[V:6] z8 | 
[V:1] z8 | 
[V:2] E2G2A2c2- | 
[V:3] e4c4 | 
[V:4] z8 | 
[V:5] z8 | 
[V:6] z8 | 
[V:1] z8 | 
[V:2] c2B2A2c2- | 
[V:3] d4f4 | 
[V:4] z8 | 
[V:5] z8 | 
[V:6] z8 | 
[V:1] z8 | 
[V:2] c2B2A2G2- | 
[V:3] e2d2f2e2- | 
[V:4] z8 | 
[V:5] z8 | 
[V:6] z8 | 
[V:1] z8 | 
[V:2] GFD2E4 | 
[V:3] edd4^c2 | 
[V:4] z8 | 
[V:5] z8 | 
[V:6] z8 | 
[V:1] z8 | 
[V:2] D8 | 
[V:3] d8 | 
[V:4] D8 | 
[V:5] z2D,2D,2D,2- | 
[V:6] z8 | 
[V:1] z8 | 
[V:2] z8 | 
[V:3] z8 | 
[V:4] E8 | 
[V:5] D,2C,B,,C,4 | 
[V:6] z8 | 
[V:1] z8 | 
[V:2] z8 | 
[V:3] z2A2A2A2- | 
[V:4] F8 | 
[V:5] D,2F,3E,D,2- | 
[V:6] z8 | 
[V:1] z8 | 
[V:2] z8 | 
[V:3] A2GFG4 | 
[V:4] D8 | 
[V:5] D,C,B,,A,,B,,4 | 
[V:6] z8 | 
[V:1] z8 | 
[V:2] z4E4 | 
[V:3] A4z2A2 | 
[V:4] C8 | 
[V:5] A,,4z2A,,2 | 
[V:6] z8 | 
[V:1] z8 | 
[V:2] D2F4ED | 
[V:3] F4G4 | 
[V:4] D8 | 
[V:5] B,,4B,,4 | 
[V:6] z8 | 
[V:1] z8 | 
[V:2] F2E2z2E2 | 
[V:3] A4z2A2 | 
[V:4] C8 | 
[V:5] A,,4z2A,,2 | 
[V:6] z8 | 
[V:1] z8 | 
[V:2] D2F4ED | 
[V:3] F4G4 | 
[V:4] D8 | 
[V:5] B,,4B,,4 | 
[V:6] z8 | 
[V:1] z8 | 
[V:2] C2A,2B,2C2 | 
[V:3] A2F2E4 | 
[V:4] z8 | 
[V:5] A,,4z2A,,2 | 
[V:6] z8 | 
[V:1] z8 | 
[V:2] D3CB,A,C2 | 
[V:3] D4z4 | 
[V:4] z8 | 
[V:5] B,,2C,2D,2E,2- | 
[V:6] z8 | 
[V:1] z8 | 
[V:2] B,A,A,4^G,2 | 
[V:3] z4z2D2 | 
[V:4] z8 | 
[V:5] E,2C,2B,,4 | 
[V:6] z8 | 
[V:1] z8 | 
[V:2] A,2A3GF2 | 
[V:3] E2F2G2A2- | 
[V:4] z8 | 
[V:5] A,,8- | 
[V:6] z8 | 
[V:1] z8 | 
[V:2] EDD4^C2 | 
[V:3] A2F2E4 | 
[V:4] z8 | 
[V:5] A,,8 | 
[V:6] z8 | 
[V:1] z8 ||  
[V:2] D8 ||  
[V:3] D8 ||  
[V:4] z8 ||  
[V:5] D,8 ||  
[V:6] z8 ||  
[V:1]  [K:C] [K:clef=treble][M:2/1]z8 | 
[V:2]  [K:C] [K:clef=treble][M:2/1]D3EF2G2 | 
[V:3]  [K:C] [K:clef=treble-8][M:2/1]z8 | 
[V:4]  [K:C] [K:clef=treble-8][M:2/1]z8 | 
[V:5]  [K:C] [K:clef=bass][M:2/1]z8 | 
[V:6]  [K:C] [K:clef=bass][M:2/1]z8 | 
[V:1] z8 | 
[V:2] E4D4 | 
[V:3] z8 | 
[V:4] z8 | 
[V:5] z8 | 
[V:6] z8 | 
[V:1] z8 | 
[V:2] A6D2 | 
[V:3] z8 | 
[V:4] D3EF2G2 | 
[V:5] z8 | 
[V:6] z8 | 
[V:1] z8 | 
[V:2] E2G2F4 | 
[V:3] z8 | 
[V:4] E4D4 | 
[V:5] z8 | 
[V:6] z8 | 
[V:1] z8 | 
[V:2] E6F2 | 
[V:3] A3Bc2d2 | 
[V:4] A6D2 | 
[V:5] z8 | 
[V:6] z8 | 
[V:1] z8 | 
[V:2] G4A4 | 
[V:3] B4A4 | 
[V:4] E2G2F4 | 
[V:5] z8 | 
[V:6] z8 | 
[V:1] z8 | 
[V:2] G2G4FE | 
[V:3] e6A2 | 
[V:4] E6F2 | 
[V:5] z8 | 
[V:6] z8 | 
[V:1] z8 | 
[V:2] D4z4 | 
[V:3] B2d2c4 | 
[V:4] G4A4 | 
[V:5] z8 | 
[V:6] z8 | 
[V:1] z8 | 
[V:2] D6E2 | 
[V:3] B6c2 | 
[V:4] G2G4FE | 
[V:5] z8 | 
[V:6] z8 | 
[V:1] z8 | 
[V:2] F4G2E2 | 
[V:3] d4e4 | 
[V:4] D4z4 | 
[V:5] z8 | 
[V:6] z8 | 
[V:1] z8 | 
[V:2] F2D2F2G2 | 
[V:3] d2d4cB | 
[V:4] D6E2 | 
[V:5] z8 | 
[V:6] z8 | 
[V:1] z8 | 
[V:2] A4D2G2 | 
[V:3] A4z4 | 
[V:4] F4G2E2 | 
[V:5] z8 | 
[V:6] z8 | 
[V:1] z8 | 
[V:2] F2A4GF | 
[V:3] A6B2 | 
[V:4] F2D2F2G2 | 
[V:5] z8 | 
[V:6] z8 | 
[V:1] z8 | 
[V:2] E4z2D2 | 
[V:3] c4d2B2 | 
[V:4] A4D2G2 | 
[V:5] z8 | 
[V:6] z8 | 
[V:1] z8 | 
[V:2] A3GE2A2 | 
[V:3] c2A2c2d2 | 
[V:4] F2A4GF | 
[V:5] z8 | 
[V:6] z8 | 
[V:1] z8 | 
[V:2] G2E2F3G | 
[V:3] e4A2d2 | 
[V:4] E4z2D2 | 
[V:5] z8 | 
[V:6] z8 | 
[V:1] z8 | 
[V:2] E2A2G2E2- | 
[V:3] c2e4dc | 
[V:4] A3GE2A2 | 
[V:5] z8 | 
[V:6] z8 | 
[V:1] z8 | 
[V:2] EFG2C2A2 | 
[V:3] B4z2A2 | 
[V:4] G2E2F3G | 
[V:5] z8 | 
[V:6] z8 | 
[V:1] z8 | 
[V:2] G2E3FG2- | 
[V:3] e3dB2e2 | 
[V:4] E2A2G2E2- | 
[V:5] z8 | 
[V:6] z8 | 
[V:1] z8 | 
[V:2] GFD2E3F | 
[V:3] d2B2c3d | 
[V:4] EFG2C2A2 | 
[V:5] z8 | 
[V:6] z8 | 
[V:1] z8 | 
[V:2] GAG4D2 | 
[V:3] B2e2d2B2- | 
[V:4] G2E3FG2- | 
[V:5] z8 | 
[V:6] z8 | 
[V:1] z8 | 
[V:2] E2F2G4- | 
[V:3] Bcd2G2e2 | 
[V:4] GFD2E3F | 
[V:5] z8 | 
[V:6] z8 | 
[V:1] z8 | 
[V:2] G2FED2F2 | 
[V:3] d2B3cd2- | 
[V:4] GAG4D2 | 
[V:5] z8 | 
[V:6] z8 | 
[V:1] z8 | 
[V:2] G2A2D4- | 
[V:3] dcA2B3c | 
[V:4] E2F2G4- | 
[V:5] z8 | 
[V:6] z8 | 
[V:1] z8 | 
[V:2] D4z2A2 | 
[V:3] ded4A2 | 
[V:4] G2FED2F2 | 
[V:5] z8 | 
[V:6] z8 | 
[V:1] z8 | 
[V:2] G2E2F2D2 | 
[V:3] B2c2d4- | 
[V:4] G2A2D4- | 
[V:5] z8 | 
[V:6] z8 | 
[V:1] z8 | 
[V:2] F3EC4 | 
[V:3] d2cBA2c2 | 
[V:4] D4z2A2 | 
[V:5] z8 | 
[V:6] z8 | 
[V:1] z8 | 
[V:2] z2G2A2F2 | 
[V:3] d2e2A4- | 
[V:4] G2E2F2D2 | 
[V:5] z8 | 
[V:6] z8 | 
[V:1] z8 | 
[V:2] A3GE2G2 | 
[V:3] A4z2e2 | 
[V:4] F3EC4 | 
[V:5] z8 | 
[V:6] z8 | 
[V:1] z8 | 
[V:2] F2D2z2A2- | 
[V:3] d2B2c2A2 | 
[V:4] z2G2A2F2 | 
[V:5] z8 | 
[V:6] z8 | 
[V:1] z8 | 
[V:2] A2E2G2D2 | 
[V:3] c3BG4 | 
[V:4] A3GE2G2 | 
[V:5] z8 | 
[V:6] z8 | 
[V:1] z8 | 
[V:2] F4E4 | 
[V:3] z2d2e2c2 | 
[V:4] F2D2z2A2- | 
[V:5] z8 | 
[V:6] z8 | 
[V:1] z8 | 
[V:2] z2E2D2F2- | 
[V:3] e3dB2d2 | 
[V:4] A2E2G2D2 | 
[V:5] z8 | 
[V:6] z8 | 
[V:1] z8 | 
[V:2] FECDEFG2 | 
[V:3] c2A2z2e2- | 
[V:4] F4E4 | 
[V:5] z8 | 
[V:6] z8 | 
[V:1] z8 | 
[V:2] C2G2F2A2- | 
[V:3] e2B2d2A2 | 
[V:4] z2E2D2F2- | 
[V:5] z8 | 
[V:6] z8 | 
[V:1] z8 | 
[V:2] A2E2G2D2 | 
[V:3] c4B4 | 
[V:4] FECDEFG2 | 
[V:5] z8 | 
[V:6] z8 | 
[V:1] z8 | 
[V:2] E2D2F2E2 | 
[V:3] z2B2A2c2- | 
[V:4] C2G2F2A2- | 
[V:5] z8 | 
[V:6] z8 | 
[V:1] z8 | 
[V:2] z2E2D2F2 | 
[V:3] cBGABcd2 | 
[V:4] A2E2G2D2 | 
[V:5] z8 | 
[V:6] z8 | 
[V:1] z8 | 
[V:2] G2A4G2 | 
[V:3] G2d2c2e2- | 
[V:4] E2D2F2E2 | 
[V:5] z8 | 
[V:6] z8 | 
[V:1] z8 | 
[V:2] E2G2F3E | 
[V:3] e2B2d2A2 | 
[V:4] z2E2D2F2 | 
[V:5] z8 | 
[V:6] z8 | 
[V:1] z8 | 
[V:2] D2CDEFG2- | 
[V:3] B2A2c2B2 | 
[V:4] G2A4G2 | 
[V:5] z8 | 
[V:6] z8 | 
[V:1] z8 | 
[V:2] G2DEFGA2- | 
[V:3] z2B2A2c2 | 
[V:4] E2G2F3E | 
[V:5] z8 | 
[V:6] z8 | 
[V:1] z8 | 
[V:2] A2E2G3F | 
[V:3] d2e4d2 | 
[V:4] D2CDEFG2- | 
[V:5] z8 | 
[V:6] z8 | 
[V:1] z8 | 
[V:2] D2F4E2 | 
[V:3] B2d2c3B | 
[V:4] G2DEFGA2- | 
[V:5] z8 | 
[V:6] z8 | 
[V:1] z8 | 
[V:2] C2E2D2G2 | 
[V:3] A2GABcd2- | 
[V:4] A2E2G3F | 
[V:5] z8 | 
[V:6] z8 | 
[V:1] z8 | 
[V:2] F2A4G2 | 
[V:3] d2ABcde2- | 
[V:4] D2F4E2 | 
[V:5] z8 | 
[V:6] z8 | 
[V:1] z8 | 
[V:2] E2G2F2D2 | 
[V:3] e2B2d3c | 
[V:4] C2E2D2G2 | 
[V:5] z8 | 
[V:6] z8 | 
[V:1] z8 | 
[V:2] A4E2G2- | 
[V:3] A2c4B2 | 
[V:4] F2A4G2 | 
[V:5] z8 | 
[V:6] z8 | 
[V:1] z8 | 
[V:2] G2D2F4 | 
[V:3] G2B2A2d2 | 
[V:4] E2G2F2D2 | 
[V:5] z8 | 
[V:6] z8 | 
[V:1] z8 ||  
[V:2] E8 ||  
[V:3] c8 ||  
[V:4] A8 ||  
[V:5] z8 ||  
[V:6] z8 ||  
[V:1]  [K:C] [K:clef=treble][M:2/1]D8 | 
[V:2]  [K:C] [K:clef=treble][M:2/1]z8 | 
[V:3]  [K:C] [K:clef=treble-8][M:2/1]z4d4 | 
[V:4]  [K:C] [K:clef=treble-8][M:2/1]z8 | 
[V:5]  [K:C] [K:clef=bass][M:2/1]z8 | 
[V:6]  [K:C] [K:clef=bass][M:2/1]z8 | 
[V:1] C8 | 
[V:2] z8 | 
[V:3] e6dc | 
[V:4] z8 | 
[V:5] z8 | 
[V:6] z8 | 
[V:1] D8 | 
[V:2] z4D4 | 
[V:3] B3AB4 | 
[V:4] z8 | 
[V:5] z8 | 
[V:6] z8 | 
[V:1] C8 | 
[V:2] E6DC | 
[V:3] ABcde3f | 
[V:4] z8 | 
[V:5] z8 | 
[V:6] z8 | 
[V:1] D8 | 
[V:2] B,3A,B,4 | 
[V:3] g2a4^g2 | 
[V:4] z8 | 
[V:5] z8 | 
[V:6] z8 | 
[V:1] F8 | 
[V:2] A,2A3GAB | 
[V:3] a4d4 | 
[V:4] z8 | 
[V:5] z8 | 
[V:6] z8 | 
[V:1] E8 | 
[V:2] c3BG2A2- | 
[V:3] c2e4dc | 
[V:4] z8 | 
[V:5] z8 | 
[V:6] z8 | 
[V:1] D8 | 
[V:2] A2^G^FG4 | 
[V:3] B3AB4 | 
[V:4] z8 | 
[V:5] z8 | 
[V:6] z8 | 
[V:1] z8 | 
[V:2] A6GF | 
[V:3] A4z2A2 | 
[V:4] D8 | 
[V:5] z8 | 
[V:6] z4D,4 | 
[V:1] z8 | 
[V:2] GFEDE4 | 
[V:3] c3BG2A2- | 
[V:4] C8 | 
[V:5] z8 | 
[V:6] E,6D,C, | 
[V:1] z8 | 
[V:2] D8 | 
[V:3] A2^G^F^G4 | 
[V:4] D8 | 
[V:5] z4D,4 | 
[V:6] B,,3A,,B,,4 | 
[V:1] z8 | 
[V:2] z8 | 
[V:3] A4G4 | 
[V:4] C8 | 
[V:5] E,6D,C, | 
[V:6] A,,B,,C,D,E,3F, | 
[V:1] z8 | 
[V:2] z8 | 
[V:3] z4d4 | 
[V:4] D8 | 
[V:5] B,,3A,,B,,4 | 
[V:6] G,2A,4^G,2 | 
[V:1] z8 | 
[V:2] z8 | 
[V:3] c4d4 | 
[V:4] F8 | 
[V:5] A,,2A,3G,A,B, | 
[V:6] A,4D,4 | 
[V:1] z8 | 
[V:2] z8 | 
[V:3] e3dB2c2 | 
[V:4] E8 | 
[V:5] C3B,G,2A,2- | 
[V:6] C,2E,4D,C, | 
[V:1] z8 | 
[V:2] z4d4 | 
[V:3] d2A2d3e | 
[V:4] D8 | 
[V:5] A,2^G,^F,G,4 | 
[V:6] B,,3A,,B,,4 | 
[V:1] A8 | 
[V:2] c2A2c4 | 
[V:3] f4e4 | 
[V:4] z8 | 
[V:5] A,8 | 
[V:6] A,,8 | 
[V:1] G8 | 
[V:2] B2G2B4 | 
[V:3] z4g4 | 
[V:4] z8 | 
[V:5] z8 | 
[V:6] E,8 | 
[V:1] A8 | 
[V:2] A4D4 | 
[V:3] f2d2f4 | 
[V:4] z8 | 
[V:5] z8 | 
[V:6] z8 | 
[V:1] G8 | 
[V:2] z4G4 | 
[V:3] e2c2e4 | 
[V:4] z8 | 
[V:5] z8 | 
[V:6] z8 | 
[V:1] A8 | 
[V:2] F2D2F4 | 
[V:3] d2f4ed | 
[V:4] z8 | 
[V:5] z8 | 
[V:6] z8 | 
[V:1] c8 | 
[V:2] E4A4 | 
[V:3] c2A3Bcd | 
[V:4] z8 | 
[V:5] z8 | 
[V:6] z8 | 
[V:1] B8 | 
[V:2] G2E2G4 | 
[V:3] e2g4e2 | 
[V:4] z8 | 
[V:5] z8 | 
[V:6] z8 | 
[V:1] A8 | 
[V:2] F2D2F4 | 
[V:3] f3ga2d2 | 
[V:4] z8 | 
[V:5] z4D4 | 
[V:6] z8 | 
[V:1] c6BA | 
[V:2] E4z2E2 | 
[V:3] e3cc4 | 
[V:4] A8 | 
[V:5] C2A,2C4 | 
[V:6] z8 | 
[V:1] B3cd4 | 
[V:2] G3FD3E | 
[V:3] z8 | 
[V:4] G8 | 
[V:5] B,2G,2B,4 | 
[V:6] z4G,4 | 
[V:1] z8 | 
[V:2] FGA4F2 | 
[V:3] z8 | 
[V:4] A8 | 
[V:5] A,4D,4 | 
[V:6] F,2D,2F,4 | 
[V:1] z8 | 
[V:2] G2E3B,^C2 | 
[V:3] [K:clef=treble]z2G2G2G2 | 
[V:4] G8 | 
[V:5] z8 | 
[V:6] E,2C,2E,4 | 
[V:1] z4z2A2- | 
[V:2] D8 | 
[V:3] F2D2F4 | 
[V:4] A8 | 
[V:5] z4A,4 | 
[V:6] D,8 | 
[V:1] ABc4BA | 
[V:2] z8 | 
[V:3] E4z2E2- | 
[V:4] c8 | 
[V:5] A,4A,4 | 
[V:6] A,,8 | 
[V:1] B2G2z2G2 | 
[V:2] [K:clef=treble-8]z2e2d2B2 | 
[V:3] EFG3FD2- | 
[V:4] B8 | 
[V:5] G,2E,2G,4 | 
[V:6] z8 | 
[V:1] A2F2A4 | 
[V:2] z2d2c2A2 | 
[V:3] DEF3EC2- | 
[V:4] A8 | 
[V:5] F,2D,2F,4 | 
[V:6] z8 | 
[V:1] G2E2G4 | 
[V:2] z2c2B2G2 | 
[V:3] CDE3B,C2 | 
[V:4] z8 | 
[V:5] E,2C,2E,4 | 
[V:6] z8 | 
[V:1] F2D2F4 | 
[V:2] B2A2z2A2- | 
[V:3] D8 | 
[V:4] z8 | 
[V:5] D,8 | 
[V:6] z4D,4 | 
[V:1] E2C2E4 | 
[V:2] ABc3BG2- | 
[V:3] z8 | 
[V:4] z8 | 
[V:5] z2A,2G,2E,2 | 
[V:6] C,2A,,2C,4 | 
[V:1] D8 | 
[V:2] GA_B3FG2 | 
[V:3] z4d4 | 
[V:4] z8 | 
[V:5] G,3F,D,4 | 
[V:6] _B,,2G,,2B,,4 | 
[V:1] z2A3GE2- | 
[V:2] A8 | 
[V:3] c2A2c4 | 
[V:4] z8 | 
[V:5] E,4A,4 | 
[V:6] A,,8 | 
[V:1] EFG3FD2- | 
[V:2] z2e2d2B2 | 
[V:3] B2G2B4 | 
[V:4] z8 | 
[V:5] G,2E,2G,4 | 
[V:6] z8 | 
[V:1] DEF4ED | 
[V:2] d3cA4 | 
[V:3] A8 | 
[V:4] z8 | 
[V:5] F,2D,2F,4 | 
[V:6] z4D,4 | 
[V:1] E2C2E4 | 
[V:2] z2c3_BG2- | 
[V:3] z8 | 
[V:4] z8 | 
[V:5] E,2A,2G,2E,2 | 
[V:6] C,2A,,2C,4 | 
[V:1] D8 | 
[V:2] GA_B3FG2 | 
[V:3] z8 | 
[V:4] d8 | 
[V:5] G,3F,D,3E, | 
[V:6] _B,,2G,,2B,,4 | 
[V:1] z8 | 
[V:2] A8- | 
[V:3] [K:clef=treble-8]z4e4 | 
[V:4] c8 | 
[V:5] F,3G,E,4 | 
[V:6] A,,8 | 
[V:1] z4A4 | 
[V:2] A8 | 
[V:3] f4f4 | 
[V:4] d8 | 
[V:5] D,8 | 
[V:6] D,8 | 
[V:1] c3Bc2A2- | 
[V:2] [K:clef=treble]z4E4 | 
[V:3] e4e4 | 
[V:4] c8 | 
[V:5] A,8 | 
[V:6] z4A,,4 | 
[V:1] A2F2_B4 | 
[V:2] F4G4 | 
[V:3] d8- | 
[V:4] d8 | 
[V:5] D,4G,4 | 
[V:6] D,4G,,4 | 
[V:1] A2D2d4- | 
[V:2] A8 | 
[V:3] d8 | 
[V:4] f8 | 
[V:5] F,4D,4 | 
[V:6] D,8 | 
[V:1] d2^cBc4 | 
[V:2] z4A4 | 
[V:3] z4e4 | 
[V:4] e8 | 
[V:5] A,8 | 
[V:6] z4A,,4 | 
[V:1] d8- | 
[V:2] A4_B4 | 
[V:3] f4g4 | 
[V:4] d8- | 
[V:5] D,4G,4 | 
[V:6] D,4G,,4 | 
[V:1] d8- | 
[V:2] A4F4 | 
[V:3] a4a4 | 
[V:4] d8- | 
[V:5] F,4D,4 | 
[V:6] D,8 | 
[V:1] d8- | 
[V:2] G8 | 
[V:3] _b8 | 
[V:4] d8- | 
[V:5] G,8 | 
[V:6] G,,8 | 
[V:1] d8 |]  
[V:2] F8 |]  
[V:3] a8 |]  
[V:4] d8 |]  
[V:5] D,8 |]  
[V:6] D,8 |]  



